usr/share/icons/biglinux-icons-material-dark/scalable/apps/system-suspend-hibernate.svg

<?xml version="1.0" encoding="UTF-8" standalone="no"?>
<svg
   xml:space="preserve"
   width="24"
   height="24"
   viewBox="0 0 6.35 6.35"
   version="1.1"
   id="svg2"
   sodipodi:docname="system-suspend-hibernate.svg"
   inkscape:version="1.3 (0e150ed6c4, 2023-07-21)"
   xmlns:inkscape="http://www.inkscape.org/namespaces/inkscape"
   xmlns:sodipodi="http://sodipodi.sourceforge.net/DTD/sodipodi-0.dtd"
   xmlns:xlink="http://www.w3.org/1999/xlink"
   xmlns="http://www.w3.org/2000/svg"
   xmlns:svg="http://www.w3.org/2000/svg"><sodipodi:namedview
     id="namedview2"
     pagecolor="#ffffff"
     bordercolor="#000000"
     borderopacity="0.25"
     inkscape:showpageshadow="2"
     inkscape:pageopacity="0.0"
     inkscape:pagecheckerboard="0"
     inkscape:deskcolor="#d1d1d1"
     inkscape:zoom="16.5625"
     inkscape:cx="12.135849"
     inkscape:cy="13.132075"
     inkscape:window-width="3440"
     inkscape:window-height="1358"
     inkscape:window-x="2560"
     inkscape:window-y="0"
     inkscape:window-maximized="1"
     inkscape:current-layer="svg2" /><defs
     id="defs2"><radialGradient
       id="a"
       cx="0"
       cy="0"
       r="1"
       gradientTransform="matrix(0,8.9351272,-8.9351272,0,3.175,-1.2761455)"
       gradientUnits="userSpaceOnUse"><stop
         offset="0"
         stop-color="#98A5FF"
         style="stop-color:#a8b0dd;stop-opacity:1"
         id="stop1" /><stop
         offset="1"
         stop-color="#1F296B"
         style="stop-color:#3c4a9d;stop-opacity:1"
         id="stop2" /></radialGradient><linearGradient
       xlink:href="#a-6"
       id="b"
       x1="57.159"
       x2="58.181999"
       y1="115.199"
       y2="-26.193001"
       gradientTransform="matrix(0.06467475,0,0,0.06467475,-0.05873745,-0.05873745)"
       gradientUnits="userSpaceOnUse" /><linearGradient
       id="a-6"><stop
         offset="0"
         style="stop-color:#d9d9d9;stop-opacity:1"
         id="stop1-3" /><stop
         offset="1"
         style="stop-color:#fff;stop-opacity:1"
         id="stop2-7" /></linearGradient></defs><path
     d="m 3.175,0.26458335 c -2.64583325,0 -2.91041665,1.32291665 -2.91041665,2.91041675 0,2.1166666 0.79374995,2.9104166 2.91041665,2.9104166 2.1166666,0 2.9104166,-0.79375 2.9104166,-2.9104166 C 6.0854166,1.5875 5.8208333,0.26458335 3.175,0.26458335 Z"
     style="font-variation-settings:normal;display:inline;vector-effect:none;fill:url(#b);fill-opacity:1;stroke-width:0.295346;stroke-linecap:butt;stroke-linejoin:miter;stroke-miterlimit:4;stroke-dasharray:none;stroke-dashoffset:0;stroke-opacity:1;-inkscape-stroke:none;stop-color:#000000"
     id="path2-5" /><path
     id="path2"
     style="fill:url(#a);stroke-width:0.24253"
     d="m 4.1007366,1.6035487 v 0.1316816 h 0.3038192 l -0.2649495,0.2649493 -0.038871,0.038871 v 0.093605 H 4.6306349 V 2.0001788 H 4.3268162 l 0.2649495,-0.2649486 0.03887,-0.038077 V 1.6035481 H 4.5370308 Z M 3.175,1.7352302 v 0.1324753 h 0.3030262 l -0.2641563,0.2649488 -0.038871,0.038871 v 0.093605 H 3.7041056 V 2.1326534 H 3.4010797 L 3.665236,1.8677049 3.7041067,1.8288342 V 1.7352302 H 3.6105008 Z M 2.3531809,1.767754 2.2381578,1.8335949 2.5221456,2.3254172 2.044602,2.1969088 l -0.03411,0.1285084 0.6052589,0.1618252 0.40615,0.7036235 H 2.2103938 L 1.7661671,2.7474323 1.6725623,2.8410372 2.0231839,3.1908655 H 1.4552084 V 3.3233409 H 2.0231839 L 1.6725623,3.6731696 1.766167,3.7667742 2.2103934,3.3233405 H 3.0219006 L 2.6157506,4.0261702 2.0104917,4.1887889 2.044602,4.3165038 2.5221456,4.1887889 2.2381578,4.6806111 2.3531809,4.7464519 2.6371687,4.2546296 2.7656769,4.7329663 2.8933922,4.6988563 2.7307734,4.0928044 3.175,3.3233405 3.6192268,4.0928044 3.4566081,4.6988563 3.5843232,4.7329663 3.7128315,4.2546296 3.9968193,4.7464519 4.1118423,4.6806111 3.8278544,4.1887889 4.3053982,4.3165038 4.3395085,4.1887889 3.7342496,4.0261702 3.3280996,3.3233405 H 4.1396063 L 4.5838329,3.7667738 4.6774379,3.6731687 4.3268162,3.3233405 H 4.8947917 V 3.1908655 H 4.3268162 L 4.6774379,2.8410372 4.5838329,2.7474323 4.1396063,3.1908655 H 3.5716311 3.3280996 3.175 L 2.7307734,2.4214015 2.8933922,1.8153496 2.7656769,1.7812392 2.6371687,2.2595761 Z m 1.3509247,0.6290565 v 0.1324753 h 0.3038193 l -0.2649493,0.2649494 -0.03887,0.03887 v 0.092811 h 0.529105 V 2.7942352 H 3.9301846 L 4.194341,2.5292858 4.23321,2.4904158 V 2.3968108 H 4.139606 Z" /></svg>

<svg xmlns="http://www.w3.org/2000/svg" xmlns:xlink="http://www.w3.org/1999/xlink" xml:space="preserve" width="24" height="24" viewBox="0 0 6.35 6.35">
<defs>
<linearGradient xlink:href="#a" id="b" x1="57.159" x2="58.182" y1="115.199" y2="-26.193" gradientTransform="translate(-.059 -.059)scale(.06467)" gradientUnits="userSpaceOnUse"/>
<linearGradient id="a">
<stop offset="0" style="stop-color:#d9d9d9;stop-opacity:1"/>
<stop offset="1" style="stop-color:#fff;stop-opacity:1"/>
</linearGradient>
<radialGradient id="c" cx="0" cy="0" r="1" gradientTransform="rotate(90 2.234 .947)scale(8.93513)" gradientUnits="userSpaceOnUse">
<stop offset="0" stop-color="#98A5FF" style="stop-color:#a8b0dd;stop-opacity:1"/>
<stop offset="1" stop-color="#1F296B" style="stop-color:#3c4a9d;stop-opacity:1"/>
</radialGradient>
</defs>
<path d="M3.175.265C.529.265.265 1.588.265 3.175c0 2.117.793 2.91 2.91 2.91s2.91-.793 2.91-2.91c0-1.587-.264-2.91-2.91-2.91" style="font-variation-settings:normal;display:inline;vector-effect:none;fill:url(#b);fill-opacity:1;stroke-width:.295346;stroke-linecap:butt;stroke-linejoin:miter;stroke-miterlimit:4;stroke-dasharray:none;stroke-dashoffset:0;stroke-opacity:1;-inkscape-stroke:none;stop-color:#000"/>
<path d="M4.1 1.604v.131h.305L4.14 2l-.04.04v.093h.53V2h-.303l.265-.265.039-.038v-.093h-.094Zm-.925.131v.133h.303l-.264.265-.039.039v.093h.53v-.132H3.4l.264-.265.04-.04v-.093H3.61Zm-.822.033-.115.066.284.491-.477-.128-.035.128.606.162.406.704H2.21l-.444-.444-.093.094.35.35h-.568v.132h.568l-.35.35.093.094.444-.444h.812l-.406.703-.606.163.035.128.477-.128-.284.492.115.065.284-.491.129.478.127-.034-.162-.606.444-.77.444.77-.162.606.127.034.129-.478.284.491.115-.065-.284-.492.477.128.035-.128-.606-.163-.406-.703h.812l.444.444.093-.094-.35-.35h.568v-.132h-.568l.35-.35-.093-.094-.444.444h-.965l-.444-.77.162-.606-.127-.034-.129.479Zm1.351.629v.132h.304l-.265.265-.039.04v.092h.53v-.132H3.93l.264-.265.04-.039v-.093H4.14Z" style="fill:url(#c);stroke-width:.24253"/>
</svg>
